X:1
T:1 Ashley's Hornpipe
C:Welch MS 
I:abc2nwc
M:C
L:1/8
K:G
GABc dBAG|gfge d3c/2B/2|BdBG cecA|BdBG GFED|
GABc dBAG|gfge e2dc|BdBG cecA|G2F2G4:|
defg fafd|fage fafd|defg afed|BdBG FAFD|
BdBG cecA|fafd gage|dgfe dcBA|G2F2G4:|


